src/assets/logo-black.svg

<svg viewBox="0 0 452 68" fill="none" xmlns="http://www.w3.org/2000/svg">
    <path d="M54 0.279999H25.64C18.9433 0.279999 12.5209 2.94026 7.78557 7.67555C3.05027 12.4108 0.390015 18.8333 0.390015 25.53C0.390015 32.2267 3.05027 38.6492 7.78557 43.3844C12.5209 48.1197 18.9433 50.78 25.64 50.78H54C60.6967 50.78 67.1192 48.1197 71.8545 43.3844C76.5898 38.6492 79.25 32.2267 79.25 25.53C79.25 18.8333 76.5898 12.4108 71.8545 7.67555C67.1192 2.94026 60.6967 0.279999 54 0.279999V0.279999ZM54.11 44.13C50.4313 44.13 46.8352 43.0391 43.7764 40.9953C40.7177 38.9515 38.3336 36.0466 36.9259 32.6479C35.5181 29.2492 35.1497 25.5094 35.8674 21.9013C36.5851 18.2933 38.3566 14.9791 40.9578 12.3778C43.5591 9.77655 46.8733 8.00508 50.4813 7.2874C54.0894 6.56971 57.8292 6.93805 61.2279 8.34584C64.6266 9.75363 67.5316 12.1376 69.5753 15.1964C71.6191 18.2552 72.71 21.8513 72.71 25.53C72.7113 27.9763 72.2298 30.3989 71.293 32.6587C70.3563 34.9186 68.9827 36.9713 67.251 38.6993C65.5193 40.4273 63.4636 41.7964 61.2018 42.7283C58.9399 43.6603 56.5163 44.1366 54.07 44.13H54.11Z" fill="#231F20" />
    <path d="M99.07 13.47C101.691 11.97 104.671 11.2128 107.69 11.28C110.911 11.2425 114.081 12.0826 116.86 13.71C119.612 15.3338 121.853 17.6965 123.33 20.53C124.955 23.6835 125.766 27.1932 125.69 30.74C125.755 34.3017 124.945 37.8249 123.33 41C121.877 43.8906 119.639 46.3138 116.874 47.9921C114.108 49.6704 110.925 50.5361 107.69 50.49C104.695 50.5504 101.74 49.797 99.14 48.31C96.8276 47.0028 94.8838 45.1313 93.49 42.87V67.87H87.19V11.91H93.49V18.91C94.8382 16.6367 96.7632 14.7601 99.07 13.47V13.47ZM117.52 23.26C116.451 21.2324 114.828 19.5504 112.84 18.41C110.865 17.3026 108.634 16.7304 106.37 16.75C104.123 16.7354 101.913 17.3224 99.97 18.45C97.9749 19.618 96.3441 21.3181 95.26 23.36C94.0896 25.6868 93.4799 28.2553 93.4799 30.86C93.4799 33.4646 94.0896 36.0331 95.26 38.36C96.3441 40.4019 97.9749 42.102 99.97 43.27C101.913 44.3976 104.123 44.9846 106.37 44.97C108.64 44.9898 110.873 44.4029 112.84 43.27C114.831 42.1065 116.453 40.4045 117.52 38.36C118.717 36.0161 119.312 33.4111 119.25 30.78C119.317 28.1675 118.722 25.5804 117.52 23.26Z" fill="#231F20" />
    <path d="M165.7 33.23H135.38C135.38 34.8287 135.703 36.4111 136.327 37.8828C136.951 39.3545 137.866 40.6856 139.015 41.7968C140.165 42.908 141.526 43.7766 143.018 44.351C144.51 44.9253 146.102 45.1936 147.7 45.14C150.116 45.2252 152.499 44.5578 154.52 43.23C156.317 41.9935 157.664 40.2075 158.36 38.14H165.14C164.183 41.7137 162.034 44.8536 159.05 47.04C155.749 49.4044 151.758 50.6104 147.7 50.47C144.305 50.5212 140.957 49.6687 138 48C135.165 46.3881 132.848 44.0015 131.32 41.12C129.657 37.9278 128.825 34.3684 128.9 30.77C128.819 27.1887 129.626 23.643 131.25 20.45C132.744 17.5831 135.041 15.2134 137.86 13.63C140.864 11.9976 144.241 11.174 147.66 11.24C150.995 11.1746 154.289 11.9886 157.21 13.6C159.916 15.106 162.139 17.3497 163.62 20.07C165.148 22.932 165.922 26.136 165.87 29.38C165.881 30.6654 165.824 31.9505 165.7 33.23V33.23ZM157.81 21.91C156.773 20.2072 155.271 18.8367 153.48 17.96C151.593 17.0446 149.518 16.5823 147.42 16.61C144.426 16.5305 141.515 17.6045 139.29 19.61C136.964 21.8233 135.588 24.8524 135.45 28.06H159.4C159.45 25.9023 158.899 23.7731 157.81 21.91V21.91Z" fill="#231F20" />
    <path d="M201.21 15.4C204.07 18.2 205.5 22.2266 205.5 27.48V49.84H199.27V28.38C199.27 24.6 198.33 21.7 196.44 19.7C195.431 18.6806 194.219 17.8863 192.881 17.3693C191.544 16.8522 190.112 16.6241 188.68 16.7C187.214 16.6294 185.75 16.8711 184.385 17.409C183.019 17.9469 181.784 18.7687 180.76 19.82C178.76 21.9 177.777 24.9233 177.81 28.89V49.89H171.51V11.91H177.81V17.31C179.061 15.3705 180.822 13.8135 182.9 12.81C185.111 11.7352 187.542 11.1908 190 11.22C192.053 11.132 194.103 11.4565 196.028 12.1745C197.954 12.8924 199.716 13.9892 201.21 15.4V15.4Z" fill="#231F20" />
    <path d="M240.4 1.59V6.72H219.4V23H236.4V28.13H219.4V49.86H213.1V1.59H240.4Z" fill="#231F20" />
    <path d="M279.72 33.23H249.39C249.393 34.8288 249.717 36.4107 250.343 37.8819C250.97 39.353 251.885 40.6834 253.035 41.7942C254.185 42.905 255.546 43.7735 257.038 44.3483C258.53 44.923 260.122 45.1922 261.72 45.14C264.136 45.2252 266.519 44.5578 268.54 43.23C270.337 41.9935 271.684 40.2075 272.38 38.14H279.16C278.203 41.7138 276.055 44.8536 273.07 47.04C269.768 49.403 265.778 50.6089 261.72 50.47C258.342 50.5263 255.009 49.6879 252.06 48.04C249.222 46.4312 246.904 44.0439 245.38 41.16C243.727 37.9658 242.908 34.4055 243 30.81C242.919 27.2287 243.726 23.683 245.35 20.49C246.842 17.6211 249.139 15.2506 251.96 13.67C254.964 12.0363 258.341 11.2127 261.76 11.28C265.095 11.2147 268.389 12.0286 271.31 13.64C274.014 15.1487 276.237 17.3917 277.72 20.11C279.24 22.9747 280.011 26.1774 279.96 29.42C279.946 30.6933 279.866 31.965 279.72 33.23V33.23ZM271.82 21.91C270.784 20.2202 269.284 18.8632 267.5 18C265.612 17.0857 263.537 16.6235 261.44 16.65C258.445 16.5695 255.535 17.6436 253.31 19.65C250.985 21.8648 249.606 24.8923 249.46 28.1H273.46C273.507 25.9234 272.939 23.7777 271.82 21.91V21.91Z" fill="#231F20" />
    <path d="M285.53 20.53C287.007 17.6965 289.248 15.3338 292 13.71C294.782 12.0813 297.956 11.2412 301.18 11.28C304.204 11.2072 307.192 11.9499 309.83 13.43C312.113 14.6954 314.005 16.5633 315.3 18.83V11.91H321.67V49.84H315.3V42.78C313.969 45.0813 312.046 46.9839 309.73 48.29C307.106 49.7809 304.127 50.5341 301.11 50.47C297.902 50.5118 294.747 49.6562 292 48C289.251 46.3024 287.023 43.8805 285.56 41C283.951 37.8301 283.144 34.3141 283.21 30.76C283.118 27.2098 283.915 23.693 285.53 20.53V20.53ZM313.53 23.33C312.463 21.2966 310.845 19.6052 308.86 18.45C306.887 17.3483 304.665 16.7699 302.405 16.7699C300.145 16.7699 297.923 17.3483 295.95 18.45C293.976 19.5954 292.367 21.2771 291.31 23.3C290.109 25.6067 289.514 28.1804 289.58 30.78C289.514 33.4116 290.109 36.0177 291.31 38.36C292.365 40.3998 293.973 42.1014 295.95 43.27C297.901 44.4065 300.123 44.9939 302.38 44.97C304.653 44.9901 306.89 44.4032 308.86 43.27C310.85 42.1084 312.47 40.4058 313.53 38.36C314.722 36.0396 315.317 33.4583 315.26 30.85C315.34 28.2409 314.758 25.6541 313.57 23.33H313.53Z" fill="#231F20" />
    <path d="M337.31 17.1V39.46C337.24 40.1573 337.308 40.8616 337.511 41.5325C337.713 42.2034 338.046 42.8278 338.49 43.37C339.27 44.13 340.64 44.51 342.58 44.51H347.21V49.84H341.54C338.03 49.84 335.4 49.04 333.64 47.42C331.88 45.8 331.01 43.15 331.01 39.42V17.1H326.1V11.91H331V2.35001H337.3V11.91H347.2V17.1H337.31Z" fill="#231F20" />
    <path d="M385.77 11.91V49.84H379.47V44.24C378.263 46.1904 376.53 47.7605 374.47 48.77C372.269 49.8667 369.839 50.4253 367.38 50.4C364.603 50.4539 361.855 49.8219 359.38 48.56C357.008 47.3306 355.064 45.4135 353.8 43.06C352.381 40.3032 351.693 37.2287 351.8 34.13V11.91H358V33.3C358 37.04 358.947 39.9133 360.84 41.92C361.846 42.9396 363.057 43.7342 364.393 44.2513C365.729 44.7684 367.16 44.9964 368.59 44.92C370.069 45.0014 371.548 44.7651 372.928 44.2269C374.308 43.6888 375.557 42.8612 376.59 41.8C378.52 39.73 379.49 36.7 379.49 32.73V11.91H385.77Z" fill="#231F20" />
    <path d="M404.78 13C407.075 11.7335 409.67 11.1116 412.29 11.2V17.7H410.63C403.557 17.7 400.023 21.53 400.03 29.19V49.82H393.73V11.91H400V18.07C401.06 15.9465 402.723 14.1828 404.78 13V13Z" fill="#231F20" />
    <path d="M451.26 33.23H420.94C420.94 34.8287 421.262 36.4111 421.887 37.8828C422.511 39.3545 423.426 40.6856 424.575 41.7968C425.725 42.908 427.086 43.7766 428.578 44.351C430.07 44.9253 431.662 45.1936 433.26 45.14C435.677 45.2278 438.061 44.5602 440.08 43.23C441.881 41.9978 443.23 40.2102 443.92 38.14H450.71C449.746 41.7104 447.599 44.848 444.62 47.04C441.315 49.4044 437.321 50.6103 433.26 50.47C429.885 50.5279 426.555 49.6893 423.61 48.04C420.772 46.4312 418.454 44.0438 416.93 41.16C415.259 37.9704 414.423 34.4098 414.5 30.81C414.422 27.2278 415.233 23.6821 416.86 20.49C418.348 17.6187 420.647 15.2473 423.47 13.67C426.471 12.0376 429.845 11.2139 433.26 11.28C436.598 11.2157 439.895 12.0295 442.82 13.64C445.524 15.1462 447.743 17.3901 449.22 20.11C450.748 22.972 451.522 26.176 451.47 29.42C451.466 30.6928 451.396 31.9645 451.26 33.23V33.23ZM443.37 21.91C442.322 20.2119 440.804 18.8538 439 18C437.131 17.0933 435.077 16.6313 433 16.65C430.002 16.5689 427.088 17.6429 424.86 19.65C422.534 21.8633 421.158 24.8924 421.02 28.1H445.02C445.059 25.923 444.488 23.7786 443.37 21.91Z" fill="#231F20" />
</svg>

<svg xmlns="http://www.w3.org/2000/svg" fill="none" viewBox="0 0 452 68"><path fill="#231F20" d="M54 .28H25.64a25.25 25.25 0 0 0 0 50.5H54a25.25 25.25 0 0 0 0-50.5Zm.11 43.85a18.6 18.6 0 1 1 18.6-18.6 18.59 18.59 0 0 1-18.64 18.6h.04ZM99.07 13.47a16.61 16.61 0 0 1 8.62-2.19 17.738 17.738 0 0 1 9.17 2.43 17.09 17.09 0 0 1 6.47 6.82 21.294 21.294 0 0 1 2.36 10.21A21.755 21.755 0 0 1 123.33 41a17.235 17.235 0 0 1-15.64 9.49 16.55 16.55 0 0 1-8.55-2.18 15.73 15.73 0 0 1-5.65-5.44v25h-6.3V11.91h6.3v7a15 15 0 0 1 5.58-5.44Zm18.45 9.79a12.093 12.093 0 0 0-4.68-4.85 13 13 0 0 0-6.47-1.66 12.588 12.588 0 0 0-6.4 1.7 12.46 12.46 0 0 0-4.71 4.91 16.69 16.69 0 0 0 0 15 12.46 12.46 0 0 0 4.71 4.91 12.588 12.588 0 0 0 6.4 1.7 12.74 12.74 0 0 0 6.47-1.7 12.252 12.252 0 0 0 4.68-4.91 15.846 15.846 0 0 0 1.73-7.58c.067-2.613-.528-5.2-1.73-7.52ZM165.7 33.23h-30.32a11.92 11.92 0 0 0 12.32 11.91 11.671 11.671 0 0 0 6.82-1.91 10.083 10.083 0 0 0 3.84-5.09h6.78a16.243 16.243 0 0 1-6.09 8.9 18.4 18.4 0 0 1-11.35 3.43A19.15 19.15 0 0 1 138 48a17.164 17.164 0 0 1-6.68-6.88 21.434 21.434 0 0 1-2.42-10.35 21.682 21.682 0 0 1 2.35-10.32 16.645 16.645 0 0 1 6.61-6.82 19.727 19.727 0 0 1 9.8-2.39 19 19 0 0 1 9.55 2.36 16.353 16.353 0 0 1 6.41 6.47 19.117 19.117 0 0 1 2.25 9.31 36.66 36.66 0 0 1-.17 3.85Zm-7.89-11.32a10.447 10.447 0 0 0-4.33-3.95 13.476 13.476 0 0 0-6.06-1.35 11.68 11.68 0 0 0-8.13 3 12.4 12.4 0 0 0-3.84 8.45h23.95a11.653 11.653 0 0 0-1.59-6.15ZM201.21 15.4c2.86 2.8 4.29 6.827 4.29 12.08v22.36h-6.23V28.38c0-3.78-.94-6.68-2.83-8.68a10.158 10.158 0 0 0-7.76-3 10.356 10.356 0 0 0-7.92 3.12c-2 2.08-2.983 5.103-2.95 9.07v21h-6.3V11.91h6.3v5.4a12.553 12.553 0 0 1 5.09-4.5 15.81 15.81 0 0 1 7.1-1.59 15.367 15.367 0 0 1 11.21 4.18ZM240.4 1.59v5.13h-21V23h17v5.13h-17v21.73h-6.3V1.59h27.3ZM279.72 33.23h-30.33a11.938 11.938 0 0 0 12.33 11.91 11.671 11.671 0 0 0 6.82-1.91 10.083 10.083 0 0 0 3.84-5.09h6.78a16.237 16.237 0 0 1-6.09 8.9 18.42 18.42 0 0 1-11.35 3.43 19.15 19.15 0 0 1-9.66-2.43 17.084 17.084 0 0 1-6.68-6.88A21.332 21.332 0 0 1 243 30.81a21.682 21.682 0 0 1 2.35-10.32 16.592 16.592 0 0 1 6.61-6.82 19.7 19.7 0 0 1 9.8-2.39 19.001 19.001 0 0 1 9.55 2.36 16.41 16.41 0 0 1 6.41 6.47 19.219 19.219 0 0 1 2.24 9.31 36.755 36.755 0 0 1-.24 3.81Zm-7.9-11.32A10.36 10.36 0 0 0 267.5 18a13.513 13.513 0 0 0-6.06-1.35 11.67 11.67 0 0 0-8.13 3 12.452 12.452 0 0 0-3.85 8.45h24a11.558 11.558 0 0 0-1.64-6.19ZM285.53 20.53a17.09 17.09 0 0 1 6.47-6.82 17.748 17.748 0 0 1 9.18-2.43 16.85 16.85 0 0 1 8.65 2.15 14.264 14.264 0 0 1 5.47 5.4v-6.92h6.37v37.93h-6.37v-7.06a14.876 14.876 0 0 1-5.57 5.51 16.73 16.73 0 0 1-8.62 2.18A17.209 17.209 0 0 1 292 48a17.587 17.587 0 0 1-6.44-7 21.732 21.732 0 0 1-2.35-10.24 21.283 21.283 0 0 1 2.32-10.23Zm28 2.8a12.209 12.209 0 0 0-4.67-4.88 13.24 13.24 0 0 0-12.91 0 12.07 12.07 0 0 0-4.64 4.85 15.353 15.353 0 0 0-1.73 7.48 15.748 15.748 0 0 0 1.73 7.58 12.23 12.23 0 0 0 4.64 4.91 12.512 12.512 0 0 0 6.43 1.7 12.77 12.77 0 0 0 6.48-1.7 12.168 12.168 0 0 0 4.67-4.91 15.686 15.686 0 0 0 1.73-7.51 15.48 15.48 0 0 0-1.69-7.52h-.04ZM337.31 17.1v22.36a5.32 5.32 0 0 0 1.18 3.91c.78.76 2.15 1.14 4.09 1.14h4.63v5.33h-5.67c-3.51 0-6.14-.8-7.9-2.42-1.76-1.62-2.63-4.27-2.63-8V17.1h-4.91v-5.19h4.9V2.35h6.3v9.56h9.9v5.19h-9.89ZM385.77 11.91v37.93h-6.3v-5.6a12.186 12.186 0 0 1-5 4.53 15.54 15.54 0 0 1-7.09 1.63 16.891 16.891 0 0 1-8-1.84 13.26 13.26 0 0 1-5.58-5.5 18.144 18.144 0 0 1-2-8.93V11.91h6.2V33.3c0 3.74.947 6.613 2.84 8.62a10.126 10.126 0 0 0 7.75 3 10.37 10.37 0 0 0 8-3.12c1.93-2.07 2.9-5.1 2.9-9.07V11.91h6.28ZM404.78 13a14.53 14.53 0 0 1 7.51-1.8v6.5h-1.66c-7.073 0-10.607 3.83-10.6 11.49v20.63h-6.3V11.91H400v6.16a12.064 12.064 0 0 1 4.78-5.07ZM451.26 33.23h-30.32a11.92 11.92 0 0 0 12.32 11.91c2.417.088 4.801-.58 6.82-1.91a9.999 9.999 0 0 0 3.84-5.09h6.79a16.337 16.337 0 0 1-6.09 8.9 18.431 18.431 0 0 1-11.36 3.43 19.08 19.08 0 0 1-9.65-2.43 17.085 17.085 0 0 1-6.68-6.88 21.32 21.32 0 0 1-2.43-10.35 21.686 21.686 0 0 1 2.36-10.32 16.521 16.521 0 0 1 6.61-6.82 19.691 19.691 0 0 1 9.79-2.39 19.06 19.06 0 0 1 9.56 2.36 16.32 16.32 0 0 1 6.4 6.47 19.117 19.117 0 0 1 2.25 9.31 36.737 36.737 0 0 1-.21 3.81Zm-7.89-11.32A10.326 10.326 0 0 0 439 18a13.47 13.47 0 0 0-6-1.35 11.689 11.689 0 0 0-8.14 3 12.4 12.4 0 0 0-3.84 8.45h24a11.649 11.649 0 0 0-1.65-6.19Z"/></svg>
